X:343
T:B343-  O Raree Show
S:(2nd/2)
Q:1/4=120
L:1/4
M:3/4
K:D
dA/A/A|dA/A/A|dA/A/A|de/d/ e/f/|\
d3|af/f/f|dA/A/A|de/d/ e/f/|\
L:1/4
M:C|d3||d|\
L:1/4
M:6/4
dddddd|ddddDd|dddddd|ddddD2|\
d3AFA|B3AFA|d3AFB|A2fd3|]

